X:3
T:Forget Me Not
R:reel
C:Larry Redican
B:Forget me Not, Seamus Connolly,Mel Bay
Z:Paul Stewart Cranford (P.S.C.), <http://www.cranfordpub.com>
L:1/8
Q:333
M:C|
K:C
Gc ~c2 AGED|CA, ~A,2 G,A,CD|(3(EFG) cG eGdc|Add^c dfed|
c2 ec AGED|CA, ~A,2 G,A,CD|(3(EFG) ce dBcA|1GEDF ECEF:|2GEDF ECEG||
|:c2 gc acgc|fdec dcAc|Gc ~c2 Gcea|gece d2 eg|
ae (3eee gede|cdec dcAG|(3(EFG) ce dBcA|1GEDF ECAB:|2GEDF ECEF|]
